images/corp-knowledge.svg

<svg height="64" viewBox="0 0 72 64" width="72" xmlns="http://www.w3.org/2000/svg"><path d="m38.3381671 63.1588367v-59.0164706c2.1099798-2.53434067 5.3000069-4.1423661 8.8663804-4.1423661h24.5132387v59.0470919h-24.5960537c-3.4989738 0-6.658569 1.5950797-8.7835654 4.1117448zm-4.2597964.8411633c-2.0737732-2.9971381-5.5491784-4.9529081-9.482317-4.9529081h-24.5960537v-59.0470919h24.6788687c3.8550846 0 7.2981942 1.93628303 9.399502 4.90807959zm-27.68867619-49.0907128h21.29898169v-2.1298982h-21.29898169zm0 10.6494908h21.29898169v-2.1298981h-21.29898169zm0 10.6494909h21.29898169v-2.1298982h-21.29898169zm38.33816709-21.2989817h21.2989817v-2.1298982h-21.2989817zm0 10.6494908h21.2989817v-2.1298981h-21.2989817zm0 10.6494909h21.2989817v-2.1298982h-21.2989817z" fill="#e0be41"/></svg>

<?xml version="1.0" encoding="UTF-8"?>
<svg width="72px" height="64px" viewBox="0 0 72 64" version="1.1" xmlns="http://www.w3.org/2000/svg" xmlns:xlink="http://www.w3.org/1999/xlink">
    <!-- Generator: Sketch 50.2 (55047) - http://www.bohemiancoding.com/sketch -->
    <title>corp-knowledge</title>
    <desc>Created with Sketch.</desc>
    <defs></defs>
    <g id="Page-1" stroke="none" stroke-width="1" fill="none" fill-rule="evenodd">
        <g id="2.1.1.Corporate" transform="translate(-158.000000, -1554.000000)" fill="#E0BE41" fill-rule="nonzero">
            <g id="Group" transform="translate(158.000000, 1496.000000)">
                <g id="Strategy-Copy-2" transform="translate(0.000000, 58.000000)">
                    <path d="M38.3381671,63.1588367 L38.3381671,4.1423661 C40.4481469,1.60802543 43.638174,0 47.2045475,0 L71.7177862,0 L71.7177862,59.0470919 L47.1217325,59.0470919 C43.6227587,59.0470919 40.4631635,60.6421716 38.3381671,63.1588367 Z M34.0783707,64 C32.0045975,61.0028619 28.5291923,59.0470919 24.5960537,59.0470919 L0,59.0470919 L0,0 L24.6788687,7.3554492e-16 C28.5339533,7.3554492e-16 31.9770629,1.93628303 34.0783707,4.90807959 L34.0783707,64 Z M6.38969451,14.9092872 L27.6886762,14.9092872 L27.6886762,12.779389 L6.38969451,12.779389 L6.38969451,14.9092872 Z M6.38969451,25.558778 L27.6886762,25.558778 L27.6886762,23.4288799 L6.38969451,23.4288799 L6.38969451,25.558778 Z M6.38969451,36.2082689 L27.6886762,36.2082689 L27.6886762,34.0783707 L6.38969451,34.0783707 L6.38969451,36.2082689 Z M44.7278616,14.9092872 L66.0268433,14.9092872 L66.0268433,12.779389 L44.7278616,12.779389 L44.7278616,14.9092872 Z M44.7278616,25.558778 L66.0268433,25.558778 L66.0268433,23.4288799 L44.7278616,23.4288799 L44.7278616,25.558778 Z M44.7278616,36.2082689 L66.0268433,36.2082689 L66.0268433,34.0783707 L44.7278616,34.0783707 L44.7278616,36.2082689 Z" id="corp-knowledge"></path>
                </g>
            </g>
        </g>
    </g>
</svg>
